!!!SOCIAL_FUNCTION:	songs connected with legends
!!!PDT:	1929
!!!OTL: No_29_Song_When_Restoring_a_Boy_to_Life.krn
!!!REG: Southwest
!!!LANG: Non-Tone
!!!LING_GROUP: Uto-Aztecan
**kern
*staff1
*clefF4
*k[f#c#g#]
*M2/4
16F#\
=1
8.c#\L
16A\Jk
8.A\L
16G#\Jk
=2
8.A\L
16G#\Jk
16G#\LL
16F#\J
8F#\J
=3
16G#\LL
16F#\J
8F#\J
8F#/L
16C#/L
16C#/JJ
=4
8F#\L
16.F#\L
32F#\JJk
8.F#\L
16F#\Jk
=5
8.F#\L
16F#\Jk
8F#/L
16C#/L
16C#/JJ
=6
8F#\L
16.F#\L
32F#\JJk
8.F#\L
16F#\Jk
=7||
*M3/4
8.F#\L
16F#\Jk
4F#\
4r
=8||
*M2/4
8.c#\L
16A\Jk
8.A\L
16G#\Jk
=9
8.A\L
16G#\Jk
16G#\LL
16F#\J
8F#\J
=10
16G#\LL
16F#\J
8F#\J
8F#/L
16C#/L
16C#/JJ
=11
8F#\L
16.F#\L
32F#\JJk
8.F#\L
16F#\Jk
=12
8.F#\L
16F#\Jk
8F#/L
16C#/L
16C#/JJ
=13
8F#\L
16.F#\L
32F#\JJk
8.F#\L
16F#\Jk
=14||
*M3/4
8.F#\L
16F#\Jk
4F#\
4r
=15
=
*M2/4
8.A\L
16A\Jk
8.A\L
16G#\Jk
=16
8.A\L
16A\Jk
16.G#\LL
32F#\JK
8F#\J
=17
16.G#\LL
32F#\JK
8F#\J
8F#/L
16C#/L
16C#/JJ
=18
8F#\L
16.F#\L
32F#\JJk
8.F#\L
16F#\Jk
=19
8.F#\L
16F#\Jk
8F#\
8r
=20
8F#\L
16.F#\L
32F#\JJk
8.F#\L
16F#\Jk
=21
8.F#\L
16F#\Jk
8F#\
8r
==:|!
*-
